X:1
T:How Wonderful Jesus Is!
T:How Wonderful Jesus Is!
T:Thoro Harris
T:Thoro Harris, 1914
T:Public Domain Courtesy of the Cyber Hymnal™
T:Public Domain Courtesy of the Cyber Hymnal™
C:Thoro Harris
Z:Public Domain
Z:Courtesy of the Cyber Hymnal™
%%score ( 1 2 ) ( 3 4 )
L:1/8
Q:1/4=111
M:4/4
K:E
V:1 treble 
V:2 treble 
V:3 bass 
V:4 bass 
V:1
 [B,E]2 | [EG]2 [EA]2 [EG]2 [EF]2 | [Dc]2 [EB]2 [EB]2 [B,E]2 | [EG]>[EG] [EG]2 [EB]2 [EG]2 | %4
w: 1.~Je-|ho- vah’s arm is|now re- vealed: How|won- der- ful Je- sus|
w: 2.~Great|sac- ri- fice or-|dained by God, How|won- der- ful Je- sus|
w: 3.~The|Li- on strong of|Ju- dah He, How|won- der- ful Je- sus|
w: 4.~He|pleads be- fore the|courts of Heav’n, How|won- der- ful Je- sus|
w: 5.~He|bears our sor- rows|far a- way, How|won- der- ful Je- sus|
w: 6.~His|death- less love let|saints de- clare, How|won- der- ful Je- sus|
w: 7.~His|per- fect praise let|an- gels sing: How|won- der- ful Je- sus|
 [DF]6 [B,E]2 | [EG]2 [EA]2 [EG]2 [EF]2 | [Dc]2 [EB]2 [EB]2 [^Ec]2 | [Fd]>[Ec] [DB]2 [Ec]2 [Fd]2 | %8
w: is! “For|Him hath God the|Fa- ther sealed”: How|won- der- ful Je- sus|
w: is! Pro-|claim thru all the|earth a- broad How|won- der- ful Je- sus|
w: is! The|smit- ten Lamb of|Cal- va- ry, How|won- der- ful Je- sus|
w: is! Thru|His a- tone- ment|peace is giv’n How|won- der- ful Je- sus|
w: is! In|His pre- vail- ing|name we pray: How|won- der- ful Je- sus|
w: is! And|speak His glo- ry|ev- ery- where: How|won- der- ful Je- sus|
w: is! And|make the bells of|Heav- en ring: How|won- der- ful Je- sus|
 B6 ||"^Refrain" [AB]2 | [Ge]>[FB] [EB]2 [Ec]2 [Ee]2 | B6 [EB]2 | [Ec]>[Ed] [Ee]2 [EB]2 [EG]2 | %13
w: is!|||||
w: is!|||||
w: is!|How|won- der- ful Je- sus|is! All|glo- ry and praise be|
w: is!|||||
w: is!|||||
w: is!|||||
w: is!|||||
 [DF]6 [B,E]2 | [EG]2 [EA]2 [EG]2 [EF]2 | [Ec]2 [DB]2 [EB]2 [FB]2 | [Ee]>[DB] [EB]2 [EG]2 [DF]2 | %17
w: ||||
w: ||||
w: His! Heav’n’s|fair- est One, God’s|match- less Son: How|won- der- ful Je- sus|
w: ||||
w: ||||
w: ||||
w: ||||
 [B,E]6 |] %18
w: |
w: |
w: is!|
w: |
w: |
w: |
w: |
V:2
 x2 | x8 | x8 | x8 | x8 | x8 | x8 | x8 | (D2 F2 E2) || x2 | x8 | (E2 D2 E>D) x2 | x8 | x8 | x8 | %15
 x8 | x8 | x6 |] %18
V:3
 [E,G,]2 | [E,B,]2 [E,C]2 [E,B,]2 [E,_B,]2 | [E,A,]2 [E,G,]2 [E,G,]2 [E,G,]2 | %3
w: ~|~ ~ ~ ~|~ ~ ~ ~|
 [E,B,]>[E,^A,] [E,B,]2 [G,E]2 [E,B,]2 | [B,,A,]6 [E,G,]2 | [E,B,]2 [E,C]2 [E,B,]2 [E,_B,]2 | %6
w: ~ ~ ~ ~ ~|~ ~|~ ~ ~ ~|
 [E,A,]2 [E,G,]2 [G,B,]2 [=G,B,]2 | [F,B,]>[F,B,] [F,B,]2 [F,^A,]2 [F,A,]2 | B,6 || [F,B,]2 | %10
w: ~ ~ ~ ~|~ ~ ~ ~ ~|~|ly|
 [E,B,]>[E,A,] [E,G,]2 [A,,A,]2 [C,A,]2 | [E,G,]2 [F,A,]2 [G,B,]>[F,A,] [E,G,]2 | %12
w: ~ ~ ~ ~ ~|so migh- ty * *|
 A,>[A,B,] [A,C]2 [G,E]2 [E,B,]2 | [B,,A,]6 [E,G,]2 | [E,B,]2 [E,C]2 [E,B,]2 [E,_B,]2 | %15
w: |||
 [E,A,]2 [F,A,]2 [G,B,]2 [A,B,]2 | [G,B,]>[F,A,] [E,G,]2 B,2 [B,,A,]2 | [E,G,]6 |] %18
w: |||
V:4
 x2 | x8 | x8 | x8 | x8 | x8 | x8 | x8 | (B,2 A,2 G,2) || x2 | x8 | x8 | A,3/2 x13/2 | x8 | x8 | %15
w: ||||||||* di- vine-|||||||
 x8 | x4 B,2 x2 | x6 |] %18
w: |||

